X:1
T:Sonata in D Minor
T:Sonata in D Minor
T:K. 213
T:Domenico Scarlatti
C:Domenico Scarlatti
%%score { ( 1 4 ) | ( 2 3 ) }
L:1/8
Q:1/4=60
M:4/4
K:F
V:1 treble nm="Piano" snm="Pno."
V:4 treble 
V:2 bass 
V:3 bass 
V:1
"^Andante"!p!!<(! d2 f2 a2 d'2-!<)! | d'/c'/b- b/a/g- g/e/{e}f- f/e/{ef}g- | %2
 g/f/e- e/e/d/^c/!<(! d/f/a/!<)!^c'/{c'} d'2- | d'/c'/c'/b/ b/a/a/g/ g/f/f/e/ e/f/f/g/ | %4
 g/f/f/e/ e/d/d/^c/{!>!c} d4 | %5
!mf!!>(! d'/=b/^g/f/ d/=B/^G/d/!>)!!p! [Fd][Ec]/[DB]/!>(!{[DB]} [Ec]2 | %6
!mf!!>(! c'/!>)!a/^f/_e/ c/A/^F/c/!>)!!p! [_Ec][DB]/[^CA]/!>(!{[CA]} [DB]2!>)! | %7
!mf!!>(! b/g/e/^c/ B/G/^C/G/!>)!!p! [EG][DF]/[CE]/!>(!{[CE]} [DF]2!>)! | %8
!<(! z2 z3/2!<)!!mf! [fd']/ [fd'][e^c']/[d=b]/!>(!{[db]} [ec']2!>)! | %9
!<(! z2 z3/2!<)!!mf! [fd']/ [fd'][e^c']/[d=b]/!>(!{[db]} [ec']2 | %10
!p!"_cresc." z/!>)! e/f/e/{/a} g>f- f/e/f/e/{/a} g>f |"_dim." e/bagf/- f/edc/=B/A/ | %12
!p!"_cresc." z/ =B/c/B/{/e} d>c- c/B/c/B/{/e} d>c | =B/e/f/e/ ^G/e/f/e/ A/e/f/e/ B/e/f/e/ | %14
!mf! c2 [ca]2 [da]2 [ca]2 | a2 a2- a/=b/c'/d'/ [ec']/[db]/[ca]/[=B^g]/ | %16
!>(! [ca]2!>)!!p! z !tenuto![ca] z !tenuto![da] z !tenuto![ea] | %17
 z !tenuto![fa] z !>![ea]- a/=b/c'/d'/ [ec']/[db]/[ca]/[=B^g]/ | %18
 a/c'/^g/a/ z/ =b/^d/e/ z/!<(! f/e/=d/ c/=B/A/B/!<)! |!mf! c>A =B>c{Bc} d>c B>d | %20
 c/=B/A/e/ c/B/A/B/ c>A B>c |{=Bc} d>c B>d c/B/A/[ce]/ [Bd]/[Ac]/[^GB]/[Bd]/ | %22
!mf! c/c'/^g/a/ z/ =b/e/f/ z/ =g/=B/c/ z/ d/A/^G/ | %23
!p! z/ c'/^g/a/ z/ =b/e/f/ z/ =g/=B/c/ z/ d/A/^G/ | %24
"_cresc." A/=B/c/E/ F/B/A/^G/ A/E/F/D/ C/A/=B,/G/ |!mf!{^G} A2 z2 z4 :: %26
!p! z/ e/^f/e/ =b/d/e/d/ ^c/e/f/e/ b/d/e/d/ | ^c/a/=b/a/ c/a/b/a/ d/a/b/a/ e/g/a/g/ | %28
"_cresc." ^f2 Pe2 d2 Pc2 | =B2 PA2!mf!!>(! d'/=b/^g/f/ d/=B/^G/d/!>)! | %30
!p! [Fd][Ec]/[D=B]/!>(!{[DB]} [Ec]2!>)!!mf!!>(! c'/a/^f/_e/ c/A/^F/c/!>)! | %31
!p! [_Ec][DB]/[^CA]/!>(!{[CA]} [DB]2!>)!!mf!!>(! b/g/e/c/ B/G/=E/B/!>)! | %32
!p! [Cc]4!<(! z2 z3/2!<)!!mf! [Bg]/ | %33
 [Bg][Af]/[Ge]/!>(!{[Ge]} [Af]2!>)!!<(! z2 z3/2!<)!!mf! [Bg]/ | %34
 [Bg][Af]/[Ge]/!>(!{[Ge]} [Af]2!>)!!<(! z2 z3/2!<)!!mf! d/ | %35
 =BPc/>B/!>(!{B} c2!>)!!<(! z2 z3/2!<)!!mf! d/ | =BPc/>B/!>(!{B} c2!>)!!f!{a} g2- g/f/e/d/ | %37
 ^cPd/>c/!>(!{c} d2!>)!!f!{a} g2- g/f/e/d/ | ^cPd/>c/!>(!{c} d2!>)!!mf! z/ d'/^g/a/ z/ b/c/d/ | %39
 z/ e/f/g/{g} fe/d/ ^c/!p!d'/^g/a/ z/ b/c/d/ | z/ e/f/g/{g} fe/d/"_cresc." e>f{/a} g>f- | %41
 f/e/f/e/{/a} g>f- f/e/f/e/{/a} g>f |"_dim." e/bagf/- f>d e>f |{ef} g>f e>g f/e/d/a/ f/e/d/e/ | %44
!p! f>d e>f{ef} g>f e>g |!<(! f/e/d/a/ f/e/d/^c/ d/!<)!!mf!d'/^g/a/ z/ b/c/d/ | %46
 z/ e/f/g/ f/e/d/^c/ d/!p!d'/^g/a/ z/ b/c/d/ | z/ e/f/g/ f/e/d/^c/ d/"_cresc."BAGF/- | %48
 F/ED^CD/- D/!mf! [Bb][Aa][Gg][Ff]/- | [Ff]/[Ee][Dd]/- D/A/E/G/!f!!>(!{[EG^c]} [FAd]2!>)! z2 :| %50
V:2
 z8 |[K:treble]!p! G2 ^c2 d2 B2 | G2 A2 D2 z2 | G2 ^c2 d2 B2 | G2 A2 D2 z2 | %5
[K:bass]!ped! =B,4 A,2!ped-up! A,,2 |!ped! A,4 G,2!ped-up! G,,2 |!ped! G,4 D,2!ped-up! D,,2 | %8
!ped! D,/F,/^G,/=B,/ D/F/^G A2!ped-up! A,2 |!ped! D,/F,/^G,/=B,/ D/F/^G A2!ped-up! A,2 | %10
[K:treble] A/^c/d/c/!ped! G/B/e/d/-!ped-up! d/c/d/c/!ped! G/B/e/d/!ped-up! | %11
 [A^c][Gc][Fd][Ec] [Dd][E^G=B] [FA]2 | %12
 E/^G/A/G/!ped! D/F/=B/A/-!ped-up! A/G/A/G/!ped! D/F/B/A/!ped-up! | [E^G]2[K:bass] D2 C2 [=B,D]2 | %14
 A,/E/F/E/!ped! G,/E/F/E/!ped-up!!ped! F,/D/E/D/!ped-up!!ped! E,/C/D/C/!ped-up! | %15
!ped! D,/=B,/C/B,/!ped-up!!ped! C,/A,/B,/A,/ [D,B,]2!ped-up!!ped! [E,B,]2!ped-up! | %16
!ped! A,/E/F/E/!ped-up!!ped! G,/E/F/E/!ped-up!!ped! F,/D/E/D/!ped-up!!ped! E,/C/D/C/!ped-up! | %17
!ped! D,/=B,/C/B,/!ped-up!!ped! C,/A,/B,/A,/ [D,B,]2!ped-up!!ped! [E,B,]2!ped-up! | %18
 [A,,A,]2 [C,E,A,]2 [D,A,=B,]2 [E,B,]2 | z/ A/^D- D/E/^G,- G,/A,/^D,- D,/E,/^G,, | %20
 A,,C,D,E, z/!p! A/^D- D/E/^G,- | G,/A,/^D,- D,/E,/^G,, A,,C,=D,E, | %22
 [A,,E,A,]2 [C,E,A,]2 [D,A,=B,]2 [E,B,]2 | [A,,E,A,]2 [C,E,A,]2 [D,A,=B,]2 [E,B,]2 | %24
 A,2 D,=B, C,D,E,E,, | [A,,A,]2 z2 z4 :: [A,E]2 [^G,E]2 [A,E]2 [G,E]2 | %27
 [A,E]2[K:treble] [GA]2 [^FA]2 [^CE]2 | D/A/=B/A/ C/A/B/A/ =B,/G/A/G/ A,/^F/G/F/ | %29
 G,/E/F/E/ F,/D/E/D/!ped! E,4 | A,2!ped-up! A,,2!ped! A,4 | G,2!ped-up! G,,2!ped! G,4 | %32
 F,2!ped-up! F,,2!ped! F,,/B,,/D,/F,/ B,/D/E!ped-up! | F2 F,2!ped! F,,/B,,/D,/F,/ B,/D/E!ped-up! | %34
 F2 F,2!ped! G,,/=B,,/D,/F,/ =B,/D/F | F!ped-up!PE/>D/{D} E2!ped! G,,/=B,,/D,/F,/ =B,/D/F | %36
 F!ped-up!PE/>D/{D} E2!ped! G,,/B,,/^C,/E,/ G,/B,/^C/E/ | %37
 G!ped-up!PF/>E/{E} F2!ped! G,,/B,,/^C,/E,/ G,/B,/^C/E/ | G!ped-up!PF/>E/{E} F2 [F,A,D]2 [F,A,D]2 | %39
 [G,B,D]2 [^G,DE]2 [A,E]2 [F,A,D]2 | %40
 [G,B,D]2 [^G,DE]2 A,/[K:treble]A/^c/d/!ped! G/B/e/d/-!ped-up! | %41
 d/^c/d/c/!ped! G/B/e/d/-!ped-up! d/c/d/c/!ped! G/B/e/d/!ped-up! | %42
 [A^c][Gc][Fd][Ec] D/!mf!d/^G- G/A/[K:bass]^C- | C/D/^G,- G,/A,/^C, D,F,=G,A, | %44
[K:treble] z/ d/^G- G/A/[K:bass]^C- C/D/^G,- G,/A,/^C, | D,F,G,A, D,2 [F,D]2 | %46
 [G,DE]2 [A,E]2 [D,A,D]2 [F,A,D]2 | [G,DE]2 [A,E]2 [D,D]G,F,E, | %48
 D,G,A,A,, D,"^cresc."[G,,G,][F,,F,][E,,E,] | [D,,D,] G, A,A,, [D,,A,,D,]2 z2 :| %50
V:3
 x8 |[K:treble] x8 | x8 | x8 | x8 |[K:bass] x8 | x8 | x8 | x8 | x8 |[K:treble] A2 G2 A2 G2 | x8 | %12
 E2 D2 E2 D2 | x2[K:bass] x6 | x8 | x8 | x8 | x8 | x8 | x8 | x8 | x8 | x8 | x8 | A,,C, D,2 x4 | %25
 x8 :: x8 | x2[K:treble] x6 | x8 | x8 | x8 | x8 | x8 | x8 | x8 | x8 | x8 | x8 | x8 | x8 | %40
 x9/2[K:treble] x3/2 G2 | A2 G2 A2 G2 | x7[K:bass] x | x8 |[K:treble] x3[K:bass] x5 | x8 | x8 | %47
 x8 | x8 | x8 :| %50
V:4
 x8 | x8 | x8 | x8 | x8 | x8 | x8 | x8 | x8 | x8 | x8 | x8 | x8 | x8 | x8 | f2 e2- e2- x2 | x8 | %17
 x4 e2- x2 | x8 | x8 | x8 | x8 | x8 | x8 | x4 A2 x2 | x8 :: x8 | x8 | x8 | x8 | x8 | x8 | %32
 BA/G/!>(!{G} A2!>)! x4 | x8 | x8 | x8 | x8 | x8 | x8 | x8 | x8 | x8 | x8 | x8 | x8 | x8 | x8 | %47
 x8 | x8 | x2 d>^c x4 :| %50

